X: 7432
T: Closing Date, The
R: reel
M: 4/4
K: Gmajor
|:(3DEF|GFGB AD (3cBA|GFGB dBgd|ec (3Gce dBgd|(3BAG cB A2 (3DEF|
GFGB AD (3cBA|GFGB (3def gd|ec (3 Gce dBGB|(3AFD BA G2:|
|:(3def|gdBd ec (3gfe|dBGD GBdg|bgdc Bgdc|(3BAG cB A2 (3DEF|
GFGB AD (3cBA|GFGB (3def gd|ec (3Gce dBGB|(3AFD BA G2:|

